packages/icons/src/gear.svg

<svg width="24" height="24" viewBox="0 0 24 24" fill="none" xmlns="http://www.w3.org/2000/svg">
<path fill-rule="evenodd" clip-rule="evenodd" d="M14.7372 2.5L15.12 4.628L15.2392 4.68169C15.5601 4.8305 15.8565 4.98617 16.1328 5.15198L16.4024 5.3213L16.561 5.431L16.8454 5.30393L18.5692 4.58918L21.5327 9.44852L20.2459 10.5561L19.846 10.905L19.8724 11.1049C19.8911 11.264 19.9053 11.4152 19.9148 11.5627L19.9256 11.782L19.9292 11.999C19.9292 12.2361 19.9163 12.4712 19.8898 12.7296L19.8589 12.9968L19.845 13.092L20.1074 13.3234L21.5379 14.5427L18.5752 19.3983L16.8533 18.6982L16.571 18.572C16.2798 18.7834 15.977 18.9727 15.6631 19.1387L15.3456 19.2969L15.115 19.397L14.7376 21.5H9.14372L8.76997 19.415L8.64228 19.363C8.36331 19.2398 8.09003 19.0941 7.81924 18.925L7.54917 18.7479L7.30597 18.574L6.95688 18.7292L5.30076 19.3878L2.34442 14.5427L3.64472 13.4358L3.96897 13.151L3.93642 12.8926C3.91768 12.7334 3.90347 12.5821 3.89395 12.4346L3.88319 12.2156L3.87958 11.999C3.87958 11.7634 3.89253 11.5289 3.91894 11.2707L3.94984 11.0036L3.97097 10.848L3.81941 10.7145L2.34512 9.45516L5.30713 4.60075L7.02946 5.301L7.31097 5.426C7.60014 5.21849 7.90411 5.02936 8.21932 4.86256L8.53815 4.70335L8.76597 4.602L9.14407 2.5H14.7372ZM13.0654 4.5H10.8169L10.5227 6.1381L10.0138 6.26471C9.45435 6.43173 8.83786 6.76354 8.29767 7.18707L8.07122 7.37398L7.58386 7.73822L7.09553 7.49669C6.9687 7.45708 6.83098 7.40103 6.68934 7.33921L6.30369 7.16654L6.12964 7.09252L4.94115 9.04032L5.40857 9.4491L5.57592 9.59277L5.75113 9.73666L6.13258 10.1116L6.02177 10.6609C5.95705 11.0514 5.87958 11.5686 5.87958 11.999C5.87958 12.3442 5.92916 12.7442 5.98313 13.0958L6.02373 13.3489L6.13258 13.8874L5.77858 14.238L5.62984 14.3603L5.49396 14.4759L4.94115 14.9587L6.12964 16.9065L6.30369 16.8329L6.69057 16.6596L6.91114 16.5675L7.14063 16.4838L7.58386 16.2608L8.05063 16.6085C8.66078 17.1366 9.21824 17.4746 9.80084 17.669L10.0206 17.7353L10.5227 17.86L10.8169 19.5H13.0654L13.3606 17.86L13.8695 17.7333C14.4358 17.5655 15.0389 17.2418 15.5828 16.8137L15.8121 16.6241L16.2994 16.2608L16.7868 16.5014C16.9136 16.5416 17.0513 16.5983 17.193 16.6602L17.5786 16.8325L17.7527 16.9065L18.9412 14.9587L18.7887 14.8271L18.6391 14.6948L18.3078 14.407L18.1312 14.2633L17.6693 13.9186L17.787 13.3381C17.8517 12.9486 17.9292 12.4334 17.9292 11.999C17.9292 11.6523 17.8796 11.2533 17.8256 10.9026L17.785 10.6502L17.6693 10.0804L18.14 9.72984L18.3926 9.52009L18.9412 9.04032L17.7527 7.09155L17.5786 7.16642L17.1913 7.33989L16.9709 7.43176L16.7417 7.51519L16.2994 7.73822L15.8327 7.39053C15.3838 7.00271 14.8349 6.67721 14.1069 6.36684L13.8254 6.25107L13.3606 6.1381L13.0654 4.5ZM12 8C14.2091 8 16 9.79086 16 12C16 14.2091 14.2091 16 12 16C9.79084 16 7.99997 14.2091 7.99997 12C7.99997 9.79086 9.79084 8 12 8ZM12 10C10.8954 10 9.99997 10.8954 9.99997 12C9.99997 13.1046 10.8954 14 12 14C13.1045 14 14 13.1046 14 12C14 10.8954 13.1045 10 12 10Z" fill="black"/>
</svg>

<svg xmlns="http://www.w3.org/2000/svg" width="24" height="24" fill="none" viewBox="0 0 24 24">
  <path fill="#000" fill-rule="evenodd" d="m14.737 2.5.383 2.128.12.054c.32.148.617.304.893.47l.27.17.158.109.285-.127 1.723-.715 2.964 4.86-1.287 1.107-.4.349.026.2c.02.159.033.31.043.458l.01.219.004.217c0 .237-.013.472-.04.73l-.03.268-.014.095.262.231 1.43 1.22-2.962 4.855-1.722-.7-.282-.126c-.291.211-.594.4-.908.567l-.317.158-.231.1-.377 2.103H9.144l-.374-2.085-.128-.052a6.539 6.539 0 0 1-.823-.438l-.27-.177-.243-.174-.35.155-1.655.659-2.957-4.845 1.3-1.107.325-.285-.033-.258a8.704 8.704 0 0 1-.042-.458l-.01-.22L3.88 12c0-.236.013-.47.039-.728l.03-.267.022-.156-.152-.134-1.474-1.259 2.962-4.854 1.722.7.282.125a7.89 7.89 0 0 1 .908-.563l.32-.16.227-.101.378-2.102h5.593Zm-1.672 2h-2.248l-.294 1.638-.51.127c-.559.167-1.175.499-1.715.922l-.227.187-.487.364-.488-.241a4.117 4.117 0 0 1-.407-.158l-.385-.172-.174-.074L4.94 9.04l.468.41.167.143.175.144.382.375-.111.549c-.065.39-.142.908-.142 1.338 0 .345.05.745.103 1.097l.04.253.11.538-.354.351-.15.122-.135.116-.553.483 1.189 1.948.174-.074.387-.173.22-.093.23-.083.443-.223.467.348c.61.528 1.167.866 1.75 1.06l.22.066.502.125.294 1.64h2.248l.296-1.64.508-.127c.567-.168 1.17-.491 1.714-.92l.23-.189.486-.363.488.24c.127.04.264.097.406.16l.386.171.174.075 1.188-1.948-.152-.132-.15-.132-.331-.288-.177-.144-.462-.344.118-.58c.065-.39.142-.906.142-1.34 0-.347-.05-.746-.103-1.096l-.04-.253-.117-.57.471-.35.253-.21.548-.48-1.188-1.948-.174.074-.388.174-.22.092-.23.083-.442.223-.466-.347c-.45-.388-.998-.714-1.726-1.024l-.282-.116-.464-.113-.296-1.638ZM12 8a4 4 0 1 1 0 8 4 4 0 0 1 0-8Zm0 2a2 2 0 1 0 0 4 2 2 0 0 0 0-4Z" clip-rule="evenodd"/>
</svg>
